!!!ONB: MCCC : IFC0053_03 : Extracted Monophonic Melody
!!!COM: Chopin, Frédéric
!!!OPR: Mazurkas
!!!OMV: 3
!!!SCT: Op.41
!!!ODT: 1838///
**kern
*thru
*staff1
*Ipiano
*>I
*clefG2
*k[b-e-a-d-]
*A-:
*M3/4
*MM126
4a-
=1
*>A
8.g
16f
4.e-
8dd-
=2
8cc
8a-
4.ff
8ee-
=3
8.g
16f
4e-
4dd-
=4
8cc
8b-
4.a-
8g
=5
8f
16r
16a-
12a-
12b-
12a-
8g
8f
=6
8e-
16r
16cc
4.aa-
8a-
=7
8.g
16f
4e-
4dd-
=8
8cc
8b-
4.a-
8g
=9
8f
16r
16a-
12a-
12b-
12a-
8g
8f
=10
8e-
16r
16cc
4ccc
12bb-
12aa-
12ff
=11
8gg
8ff
8ee-
8dd-
8b-
8f
=12
*>A1
8e-
16r
16cc
4a-
8b-
8a-
=13
*>A
8.g
16f
4.e-
8dd-
=14
8cc
8a-
4.ff
8ee-
=15
8.g
16f
4e-
4dd-
=16
8cc
8b-
4.a-
8g
=17
8f
16r
16a-
12a-
12b-
12a-
8g
8f
=18
8e-
16r
16cc
4.aa-
8a-
=19
8.g
16f
4e-
4dd-
=20
8cc
8b-
4.a-
8g
=21
8f
16r
16a-
12a-
12b-
12a-
8g
8f
=22
8e-
16r
16cc
4ccc
12bb-
12aa-
12ff
=23
8gg
8ff
8ee-
8dd-
8b-
8f
=24
*>A2
8e-
16r
16cc
4a-
4cc
=25
*>B
4dd-
8ee-
8dd-
4cc
=26
8dd-
8cc
4b-
4cc
=27
4dd
8ee-
8dd-
4cc
=28
8dd-
8cc
4b-
4cc
=29
4b-
8cc
8b-
4a-
=30
8b-
8a-
4g
4a-
=31
4g
8a-
8g
4f
=32
8e
8g
2c
=33
[2cc
4cc]
=34
[2cc
4cc]
=35
2.cc[
=36
2cc]
8b-
8a-
=37
8.g
16f
4.e-
8dd-
=38
8cc
8a-
4.ff
8ee-
=39
8.g
16f
4e-
4dd-
=40
8cc
8b-
4.a-
8g
=41
8f
16r
16a-
12a-
12b-
12a-
8g
8f
=42
8e-
16r
16cc
4.aa-
8a-
=43
8.g
16f
4e-
4dd-
=44
8cc
8b-
4.a-
8g
=45
8f
16r
16a-
12a-
12b-
12a-
8g
8f
=46
8e-
16r
16cc
4ccc
12bb-
12aa-
12ff
=47
8gg
8ff
8ee-
8dd-
8b-
8f
=48
*>B1
8e-
16r
16cc
4a-
4cc
=49
*>B
4dd-
8ee-
8dd-
4cc
=50
8dd-
8cc
4b-
4cc
=51
4dd
8ee-
8dd-
4cc
=52
8dd-
8cc
4b-
4cc
=53
4b-
8cc
8b-
4a-
=54
8b-
8a-
4g
4a-
=55
4g
8a-
8g
4f
=56
8e
8g
2c
=57
[2cc
4cc]
=58
[2cc
4cc]
=59
2.cc[
=60
2cc]
8b-
8a-
=61
8.g
16f
4.e-
8dd-
=62
8cc
8a-
4.ff
8ee-
=63
8.g
16f
4e-
4dd-
=64
8cc
8b-
4.a-
8g
=65
8f
16r
16a-
12a-
12b-
12a-
8g
8f
=66
8e-
16r
16cc
4.aa-
8a-
=67
8.g
16f
4e-
4dd-
=68
8cc
8b-
4.a-
8g
=69
8f
16r
16a-
12a-
12b-
12a-
8g
8f
=70
8e-
16r
16cc
4ccc
12bb-
12aa-
12ff
=71
8gg
8ff
8ee-
8dd-
8b-
8f
=72
*>B2
8e-
8cc
8ccc
8bb-
8aa-
8ff
=73
*>C
8gg
8ff
8ee-
8dd-
8b-
8f
=74
8e-
8cc
8ccc
8bb-
8aa-
8ff
=75
8ee-
8cc
8ccc
8bb-
8aa-
8ff
=76
8ee-
8cc
8ccc
8bb-
8aa-
8ff
=77
8ee-
8cc
8ccc
8bb-
8aa-
8ff
=78
8ee-
8cc
8gg
8ff
8ee-
8a-
=79
2.cc
==
*-
